!!!!SEGMENT: pl-kk--kk-i-389--004-006_anonim--missa-no-4-benedictus.krn
!!!cenid: 17xx:2481
!!!COM: Anonim
!!!COM-rismID: pe30004985
!!!CDT:
!!!CNT:
!!!OPR: [Missa] No. 4.
!!!OTL: Benedictus
!!!OMV: 006
!!!PDT:
!!!AGN: Sacred; Mass
!!!YEC: Copyright 2022 Narodowy Instytut Fryderyka Chopina (https://polishscores.org)
!!!YEM: License CC-BY-4.0 (https://creativecommons.org/licenses/by/4.0)
!!!SMS-siglum: PL-Kk
!!!SMS-shelfmark: Kk.I.389
!!!SMS-variant:
!!!SMS-altvar:
!!!SMS-shelfwork: 004-006 M
!!!NIFC-rismSourceID: 1001146182
!!!NIFC-rismChildID: 1001146623
!!!NIFC-islandoraID: pl-kk:6976
!!!URL-pdf-islandora: https://repozytorium.nifc.pl/islandora/object/pl-kk%3A6976/datastream/PDF/view
!!!URL-scan: https://polish.musicsources.pl/pl/lokalizacje/galeria/rekopisy/5999/1 @EN{Scan on Polish Music Sources Website} @PL{Skany w portalu Dziedzictwo Muzyki Polskiej w otwartym dostępie}
!!!IIIF:
!!!ONB-nifc: UWAGA: S – skan 8-9, A – 27-28 , T –46-47 , B – 65-66 . Części Mszy: Rorate, Kyrie, Gloria, Graduale, Sanctus, Benedictus, Agnus, Dona
!!!AIN: 1 alto 1 bass 1 soprn 1 tenor
!!!key: B-
**kern	**text	**kern	**kern	**text	**kern	**text
*part4	*part4	*part3	*part2	*part2	*part1	*part1
*staff4	*staff4	*staff3	*staff2	*staff2	*staff1	*staff1
*I"Basso.	*	*I"Tenore.	*I"Alto.	*	*I"Soprano.	*
*I'[B]	*	*I'[T]	*I'[A]	*	*I'[S]	*
*ICvox	*	*ICvox	*ICvox	*	*ICvox	*
*Ibass	*	*Itenor	*Ialto	*	*Isoprn	*
*clefF4	*	*clefC4	*clefC3	*	*clefC1	*
*k[b-e-]	*	*k[b-e-]	*k[b-e-]	*	*k[b-e-]	*
*B-:	*	*B-:	*B-:	*	*B-:	*
*M2/2	*	*M2/2	*M2/2	*	*M2/2	*
*met(C.|)	*	*met(C.|)	*met(C.|)	*	*met(C.|)	*
=1	=1	=1	=1	=1	=1	=1
!!LO:TX:t=P:problem: all\right	!	!	!	!	!	!	!
!	!	!LO:TX:a:i:t=Benedictus Tacet.	!	!	!	!
4BB-/	Be-	1ryy	4.B-/	Be-	4.dd\	Be-
4BB-/	-ne-	.	.	.	.	.
.	.	.	8d\	-ne-	8b-\	-ne-
4F\	-dic-	.	8f\L	-dic-	8dd\L	-dic-
.	.	.	8e-\J	.	8cc\J	.
8F\	-tus	.	8d\	-tus	8b-\	-tus
8F\	qui	.	8c\	qui	8a\	qui
=2	=2	=2	=2	=2	=2	=2
8D/L	ve-	1ryy	8d\L	ve-	8b-\L	ve-
8C/J	.	.	8c\J	.	8a\J	.
4BB-/	-nit	.	4B-/	-nit	4b-\	-nit
4r	.	.	4r	.	4r	.
4BB-/	qui	.	4d\	qui	4b-\	qui
=3	=3	=3	=3	=3	=3	=3
4F\	ve-	1ryy	4c\	ve-	4a\	ve-
4F\	-nit	.	8c\	-nit	8a\	-nit
.	.	.	8d\	in	8b-\	in
4A\	qui	.	8f\L	no-	8dd\L	no-
.	.	.	8e-\	.	8cc\	.
4F\	.	.	8d\	.	8b-\	.
.	.	.	8c\J	-mi-	8a\J	-mi-
=4	=4	=4	=4	=4	=4	=4
*	*	*	*2\right	*	*2\right	*
4B-\	ve-	1ryy	2d\	-ne	2b-\	-ne,
4BB-/	-nit,	.	.	.	.	.
4r	.	.	4r	.	4r	.
4BB-/	in	.	4f\	in	4dd\	in
!	!	!	!LO:LB:g=original	!	!LO:LB:g=original	!
=5	=5	=5	=5	=5	=5	=5
4BB-/	no-	1ryy	4f\	no-	4dd\	no-
8AA/	-mi-	.	8g\	-mi-	8ee-\	-mi-
8BB-/	-ne	.	8f\	-ne	8dd\	-ne
4E-\	Do-	.	8f\L	Do-	8dd\L	Do-
.	.	.	8e-\J	.	8cc\J	.
4En\	-mi-	.	8e-\L	-mi-	8cc\L	-mi-
.	.	.	8d\J	.	8b-\J	.
=6	=6	=6	=6	=6	=6	=6
.	.	.	.	.	8qb-/	.
*2\right	*	*	*	*	*	*
2F\	-ni,	1ryy	2c\	-ni	2a\	-ni,
2r	.	.	2r	.	2r	.
!LO:LB:g=original	!	!	!	!	!	!
=7	=7	=7	=7	=7	=7	=7
2F\	Be-	1ryy	4.c\	Be-	4.a\	Be-
.	.	.	8d\	.	8b-\	.
4A\	.	.	4e-\	.	4cc\	.
4F\	-ne-	.	4e-\	-ne-	4cc\	-ne-
=8	=8	=8	=8	=8	=8	=8
4B-\	-dic-	1ryy	8f\L	-dic-	8dd\L	-dic-
.	.	.	8e-\	.	8cc\	.
4BB-/	.	.	8d\	.	8b-\	.
.	.	.	8e-\J	.	8cc\J	.
4BB-/	-tus	.	4d\	-tus,	4b-\	-tus,
4G\	qui	.	4d\	qui	4bn\	qui
=9	=9	=9	=9	=9	=9	=9
2G\	ve-	1ryy	4.d\	ve-	4.bn\	ve-
.	.	.	8en\	.	8cc\	.
4Bn\	-nit	.	4f\	-nit	4dd\	-nit
4G\	qui	.	4f\	qui	4dd\	qui
=10	=10	=10	=10	=10	=10	=10
4c\	ve-	1ryy	8g\L	ve-	8een\L	ve-
.	.	.	8f\	.	8dd\	.
4C/	.	.	8en\	.	8cc\	.
.	.	.	8f\J	.	8dd\J	.
!	!	!	!	!	!LO:LB:g=original	!
4C/	-nit	.	4e\	-nit	4cc\	-nit
4En\	in	.	4g\	in	4b-X\	in
!	!	!	!LO:LB:g=original	!	!	!
=11	=11	=11	=11	=11	=11	=11
4F\	no-	1ryy	4a\	no-	4cc\	no-
8B-\	-mi-	.	8b-\	-mi-	8dd\	-mi-
8B-\	-ne	.	8g\	-ne	8b-\	-ne
4c\	Do-	.	4f\	Do-	4a\	Do-
4C/	-mi-	.	4en\	-mi-	4g\	-mi-
=12	=12	=12	=12	=12	=12	=12
2F\	-ni.	1ryy	2f\	-ni	2a\	-ni,
2r	.	.	2r	.	2r	.
=13	=13	=13	=13	=13	=13	=13
2BB-/	Be-	1ryy	2f\	Be-	2dd\	Be-
4E-\	.	.	2e-X\	-ne-	2cc\	-ne-
4F\	-ne-	.	.	.	.	.
=14	=14	=14	=14	=14	=14	=14
2BB-/	-dic-	1ryy	4d\	-dic-	4b-\	-dic-
.	.	.	4f\	.	4dd\	.
4AA/	-tus	.	4e-\	-tus	4cc\	-tus
4BB-/	qui	.	4d\	qui	4b-\	qui
!LO:LB:g=original	!	!	!	!	!	!
=15	=15	=15	=15	=15	=15	=15
4F\	ve-	1ryy	4d\	ve-	4b-\	ve-
4FF/	.	.	4c\	-nit,	4a\	-nit
4F\	-nit	.	2e-\	in	2cc\	in
4A\	in	.	.	.	.	.
=16	=16	=16	=16	=16	=16	=16
4.B-\	no-	1ryy	4.d\	no-	4.b-\	no-
8F\	-mi-	.	8e-\	-mi-	8cc\	-mi-
2BB-/	-ne	.	2f\	-ne	2dd\	-ne
=17	=17	=17	=17	=17	=17	=17
.	.	.	8qa/	.	8qff/	.
2E-\	Do-	1ryy	4g\	no-	4ee-X\	Do-
.	.	.	8f\L	-mi-	8dd\L	.
.	.	.	8e-X\J	-ne	8cc\J	.
!	!	!	!	!	!LO:LB:g=original	!
4F\	.	.	4d\	Do-	4b-\	.
4F\	-mi-	.	4c\	-mi-	4a\	-mi-
!	!	!	!LO:LB:g=original	!	!	!
=18	=18	=18	=18	=18	=18	=18
2BB-/	-ni,	1ryy	2d\	-ni,	2b-\	-ni,
4F\	in	.	4c\	in	4a\	in
4A\	.	.	4e-\	.	4cc\	.
=19	=19	=19	=19	=19	=19	=19
4.B-\	no-	1ryy	4.d\	no-	4.b-\	no-
8F\	-mi-	.	8e-\	-mi-	8cc\	-mi-
2BB-/	-ne	.	2f\	-ne	2dd\	-ne
=20	=20	=20	=20	=20	=20	=20
.	.	.	8qa/	.	8qff/	.
2E-\	Do-	1ryy	4g\	no-	4ee-X\	Do-
.	.	.	8f\L	-mi-	8dd\L	.
.	.	.	8e-X\J	-ne	8cc\J	.
4F\	.	.	4d\	D-	4b-\	.
4F\	-mi-	.	4c\	-mi-	4a\	-mi-
=21	=21	=21	=21	=21	=21	=21
!	!	!LO:TX:a:t=Osanna Da Capo.	!	!	!	!
2BB-/	-ni.	1ryy	2d\	-ni.	2b-\	-ni
!LO:TX:a:t=Osanna\nDa Capo.	!	!	!LO:TX:a:t=Osanna Da Capo.	!	!LO:TX:a:t=Osanna Da Capo.	!
2r	.	.	2r	.	2r	.
==	==	==	==	==	==	==
*-	*-	*-	*-	*-	*-	*-
!!!system-decoration: [(s1,s2,s3,s4)]
!!!ENC: Andrzej Gręziak
!!!END: 2023-11-07
!!!EED: Jan Barakat
!!!EEV: 2023-11-30
